frontend/public/svg/interface/cloud-down.svg

<svg width="163" height="137" viewBox="0 0 163 137" fill="none" xmlns="http://www.w3.org/2000/svg">
<g clip-path="url(#clip0)">
<path d="M12.039 97.7161C18.4678 102.495 26.1135 105.018 34.7637 105.212C43.4702 105.411 52.3245 105.479 60.8852 105.545C64.4859 105.572 68.0868 105.603 71.6883 105.638C72.4122 105.645 73.1347 105.644 73.8915 105.641H74.3775L75.6871 126.155L72.7919 124.661C69.2389 122.828 65.8816 121.097 62.5331 119.33C62.421 119.271 62.3102 119.209 62.2007 119.148C61.3181 118.656 60.1102 117.985 58.7572 119.23C58.637 119.34 58.5618 119.491 58.5459 119.653C58.3386 121.766 59.5549 123.192 60.628 124.45C60.8535 124.714 61.0816 124.977 61.289 125.245C64.2944 129.083 68.3453 131.688 72.2631 134.207L73.3187 134.886C74.9763 135.984 76.919 136.576 78.9084 136.591C81.3332 136.581 83.6666 135.67 85.4532 134.035C86.8373 132.796 88.2797 131.566 89.6736 130.376C91.9299 128.45 94.264 126.458 96.4381 124.36C97.9913 122.792 99.4338 121.118 100.754 119.35C101.321 118.626 101.877 117.916 102.439 117.243C102.514 117.153 102.564 117.043 102.582 116.928C102.602 116.811 102.59 116.693 102.547 116.583C101.747 114.48 100.508 114.572 99.4014 114.937C96.0564 116.037 92.9518 117.76 90.2509 120.014C88.4126 121.535 86.512 123.036 84.4999 124.625C83.9193 125.084 83.3245 125.554 82.716 126.035C82.8177 123.159 82.7808 120.358 82.7387 117.634C82.6013 113.633 82.7004 109.628 83.0368 105.639L83.261 105.606C83.607 105.546 83.9569 105.506 84.3081 105.489C88.0393 105.39 91.8418 105.414 95.5185 105.438C102.855 105.483 110.437 105.533 117.903 104.616C120.778 104.264 123.749 104.163 126.621 104.072C128.101 104.023 129.631 103.973 131.137 103.888C143.312 103.206 152.613 97.1642 158.781 85.9321C162.778 78.655 163.464 70.9313 160.766 63.5947C157.21 53.9258 150.463 46.7592 140.703 42.2944C134.018 39.1884 126.73 37.5886 119.355 37.6087H119.123L119.119 37.5645C119.086 37.2246 119.061 36.961 119.047 36.6961C118.327 22.5198 111.912 12.2686 99.9826 6.2367C84.0736 -1.81076 68.0952 -1.67115 52.4878 6.65288C41.418 12.5568 34.6269 22.1054 32.3039 35.0332C31.9797 37.0541 31.7679 39.0912 31.6695 41.1355C31.6196 41.898 31.569 42.6595 31.5062 43.4155C31.2703 43.4802 31.0772 43.5364 30.8815 43.5746C15.8686 46.533 6.23354 55.6705 2.2451 70.7348C-0.52964 81.1959 3.04474 91.0283 12.039 97.7161ZM83.8429 88.2812C84.0425 81.5701 84.2323 75.2319 84.3619 68.7709C84.3691 66.2022 84.2213 63.6354 83.9193 61.0845C83.6051 58.055 81.884 57.4096 80.4947 57.4012H80.4713C79.2959 57.4012 77.3091 57.8825 77.0155 61.0549C76.4764 66.8891 76.0708 72.7672 75.7124 78.2517C75.518 81.2612 75.3547 84.3211 75.1992 87.2808C75.0845 89.4573 74.9705 91.6344 74.8415 93.8077C74.7942 94.3725 74.7113 94.9334 74.594 95.4879L74.5195 95.8821C74.0341 95.8821 73.5552 95.8879 73.0815 95.8911C71.6793 95.9027 70.356 95.9144 69.0251 95.8717L61.7924 95.6514C52.4003 95.3664 42.6874 95.0698 33.1411 94.682C28.2518 94.5812 23.4966 93.0684 19.4514 90.3284C13.0563 85.956 10.5927 80.0282 12.1291 72.7097C14.6783 60.5748 22.2022 52.8057 34.4909 49.6134C37.3764 48.8644 38.7068 47.4474 39.0845 44.7197C39.1889 43.9739 39.3373 43.2119 39.4824 42.4752C39.59 41.9259 39.6976 41.3765 39.7896 40.8246C42.7516 23.0133 56.7296 11.6697 75.1292 11.6697C76.4006 11.6697 77.6927 11.7243 79.0062 11.8337C84.0126 12.234 88.896 13.5875 93.3912 15.8209C97.979 18.1144 101.41 21.1943 103.591 24.9766L103.775 25.2959C106.877 30.6725 110.084 36.2327 110.525 42.7008C110.696 45.1972 112.755 46.8464 115.618 46.7959C123.515 46.7212 131.291 48.7181 138.169 52.5867C142.751 55.1053 146.486 58.9152 148.909 63.5397C152.166 69.5768 151.851 75.6888 147.975 81.7039C146.251 84.5169 143.909 86.9021 141.125 88.6799C138.341 90.4576 135.188 91.5808 131.905 91.9653C129.176 92.3304 126.376 92.5902 123.67 92.8409C120.074 93.1737 116.358 93.5188 112.732 94.1159C106.092 95.2094 99.2873 95.2791 92.7088 95.3438C89.9503 95.3716 87.0978 95.3993 84.29 95.5021C84.0684 95.4924 83.8487 95.4607 83.6336 95.4084C83.7023 93.0141 83.7716 90.6392 83.8429 88.2837V88.2812Z" fill="black"/>
</g>
<defs>
<clipPath id="clip0">
<rect width="162" height="137" fill="white" transform="translate(0.777344)"/>
</clipPath>
</defs>
</svg>

<svg xmlns="http://www.w3.org/2000/svg" width="163" height="137" fill="none" viewBox="0 0 163 137"><g clip-path="url(#a)"><path fill="#000" d="M12.039 97.716c6.429 4.779 14.074 7.302 22.725 7.496 8.706.199 17.56.267 26.121.333q5.4.04 10.803.093c.724.007 1.447.006 2.203.003h.486l1.31 20.514-2.895-1.494c-3.553-1.833-6.91-3.564-10.259-5.331q-.168-.09-.332-.182c-.883-.492-2.09-1.163-3.444.082a.66.66 0 0 0-.211.423c-.207 2.113 1.009 3.539 2.082 4.797.225.264.454.527.661.795 3.005 3.838 7.056 6.443 10.974 8.962l1.056.679a10.26 10.26 0 0 0 5.59 1.705 9.75 9.75 0 0 0 6.544-2.556c1.384-1.239 2.827-2.469 4.22-3.659 2.257-1.926 4.591-3.918 6.765-6.016a47.5 47.5 0 0 0 4.316-5.01c.567-.724 1.123-1.434 1.685-2.107.075-.09.125-.2.143-.315a.64.64 0 0 0-.035-.345c-.8-2.103-2.039-2.011-3.146-1.646a27.9 27.9 0 0 0-9.15 5.077c-1.838 1.521-3.739 3.022-5.751 4.611l-1.784 1.41c.102-2.876.065-5.677.023-8.401-.138-4.001-.039-8.006.298-11.995l.224-.033q.52-.09 1.047-.117c3.731-.099 7.534-.075 11.21-.051 7.337.045 14.919.095 22.385-.822 2.875-.352 5.846-.453 8.718-.544 1.48-.049 3.01-.099 4.516-.184 12.175-.682 21.476-6.724 27.644-17.956 3.997-7.277 4.683-15 1.985-22.337-3.556-9.67-10.303-16.836-20.063-21.3a50.3 50.3 0 0 0-21.348-4.686h-.232l-.004-.044c-.033-.34-.058-.604-.072-.869-.72-14.176-7.135-24.427-19.064-30.46-15.91-8.047-31.888-7.907-47.495.417-11.07 5.904-17.861 15.452-20.184 28.38a55 55 0 0 0-.635 6.102c-.05.763-.1 1.525-.163 2.28-.236.065-.429.121-.625.16C15.87 46.533 6.235 55.67 2.246 70.735c-2.775 10.46.8 20.293 9.794 26.981m71.804-9.435c.2-6.71.39-13.05.519-19.51a64 64 0 0 0-.443-7.687c-.314-3.029-2.035-3.674-3.424-3.683h-.024c-1.175 0-3.162.481-3.456 3.654-.539 5.834-.944 11.712-1.303 17.197-.194 3.01-.357 6.07-.513 9.029-.114 2.176-.228 4.353-.358 6.527q-.071.847-.247 1.68l-.075.394q-.727.002-1.437.01c-1.403.01-2.726.022-4.057-.02l-7.233-.22c-9.392-.286-19.105-.582-28.65-.97a25.34 25.34 0 0 1-13.69-4.354c-6.396-4.372-8.86-10.3-7.323-17.618 2.55-12.135 10.073-19.904 22.362-23.097 2.885-.749 4.216-2.166 4.593-4.893a42 42 0 0 1 .398-2.245c.108-.55.216-1.099.308-1.65C42.752 23.013 56.73 11.67 75.13 11.67q1.906 0 3.876.164c5.007.4 9.89 1.754 14.385 3.987 4.588 2.293 8.019 5.373 10.2 9.156l.184.319c3.102 5.377 6.309 10.937 6.75 17.405.171 2.496 2.23 4.145 5.093 4.095a45.13 45.13 0 0 1 22.551 5.79 26.57 26.57 0 0 1 10.74 10.954c3.257 6.037 2.942 12.149-.934 18.164a21.8 21.8 0 0 1-6.85 6.976 21.86 21.86 0 0 1-9.22 3.285c-2.729.365-5.529.625-8.235.876-3.596.333-7.312.678-10.938 1.275-6.64 1.093-13.445 1.163-20.023 1.228-2.759.028-5.611.055-8.419.158a3.4 3.4 0 0 1-.656-.094q.102-3.591.209-7.124z"/></g><defs><clipPath id="a"><path fill="#fff" d="M.777 0h162v137h-162z"/></clipPath></defs></svg>
